X: 41032
T: Trip To Kyle, The
R: jig
M: 6/8
K: Gmajor
|:gag ded|cBc d3|B3 BAG||EFG A3|
BcB BAG|dcd efg|gfe dBG|DEF G3:|
|:GBd cBc|ded cBc|gag fdB|cBc d3|
GBd cBc|ded cBc|gfe dBG|DEF G3:|

